svg/24/camera-input-check.svg

<svg width="24" height="24" viewBox="0 0 24 24" fill="currentColor" xmlns="http://www.w3.org/2000/svg"><path d="M17 6L15.2969 3.4453C15.1114 3.1671 14.7992 3 14.4648 3H9.53518C9.20083 3 8.8886 3.1671 8.70313 3.4453L7 6H4C2.89543 6 2 6.89543 2 8V10C2 10.4142 2.33579 10.75 2.75 10.75C3.16421 10.75 3.5 10.4142 3.5 10V8C3.5 7.72386 3.72386 7.5 4 7.5H7C7.50153 7.5 7.96988 7.24935 8.24808 6.83205L9.80278 4.5H14.1972L15.7519 6.83205C16.0301 7.24935 16.4985 7.5 17 7.5H20C20.2761 7.5 20.5 7.72386 20.5 8V11.7322C21.051 12.0194 21.5557 12.3832 22 12.8096V8C22 6.89543 21.1046 6 20 6H17Z"/><path d="M16.3301 10.5C16.4349 10.6814 16.5278 10.8687 16.6086 11.0606C16.0959 11.1309 15.6023 11.261 15.1349 11.4437C15.1024 11.3782 15.0678 11.3136 15.0311 11.25C14.7239 10.7179 14.2821 10.2761 13.75 9.96891C13.2179 9.66172 12.6144 9.5 12 9.5C11.3856 9.5 10.7821 9.66172 10.25 9.96891C9.89128 10.176 9.43259 10.0531 9.22548 9.69439C9.01837 9.33567 9.14128 8.87698 9.5 8.66987C10.2601 8.23103 11.1223 8 12 8C12.8777 8 13.7399 8.23103 14.5 8.66987C15.2601 9.10871 15.8913 9.7399 16.3301 10.5Z"/><path d="M11 17.5C11 17.1185 11.0329 16.7447 11.0959 16.3812C10.8011 16.3024 10.5166 16.185 10.25 16.0311C9.89128 15.824 9.43259 15.9469 9.22548 16.3056C9.01837 16.6643 9.14128 17.123 9.5 17.3301C9.97165 17.6024 10.4826 17.7947 11.0122 17.9015C11.0041 17.7687 11 17.6348 11 17.5Z"/><path d="M12.0218 21C11.7253 20.5368 11.4858 20.0335 11.3135 19.5H4C3.72386 19.5 3.5 19.2761 3.5 19V16C3.5 15.5858 3.16421 15.25 2.75 15.25C2.33579 15.25 2 15.5858 2 16V19C2 20.1046 2.89543 21 4 21H12.0218Z"/><path d="M2 13C2 12.5858 2.33579 12.25 2.75 12.25H7.37868L5.90901 10.7803C5.61612 10.4874 5.61612 10.0126 5.90901 9.71967C6.2019 9.42678 6.67678 9.42678 6.96967 9.71967L9.71967 12.4697C10.0126 12.7626 10.0126 13.2374 9.71967 13.5303L6.96967 16.2803C6.67678 16.5732 6.2019 16.5732 5.90901 16.2803C5.61612 15.9874 5.61612 15.5126 5.90901 15.2197L7.37868 13.75H2.75C2.33579 13.75 2 13.4142 2 13Z"/><path fill-rule="evenodd" clip-rule="evenodd" d="M23 17.5C23 20.5376 20.5376 23 17.5 23C14.4624 23 12 20.5376 12 17.5C12 14.4624 14.4624 12 17.5 12C20.5376 12 23 14.4624 23 17.5ZM19.6464 15.6464C19.8417 15.4512 20.1583 15.4512 20.3536 15.6464C20.5488 15.8417 20.5488 16.1583 20.3536 16.3536L16.8536 19.8536C16.7598 19.9473 16.6326 20 16.5 20C16.3674 20 16.2402 19.9473 16.1464 19.8536L14.1464 17.8536C13.9512 17.6583 13.9512 17.3417 14.1464 17.1464C14.3417 16.9512 14.6583 16.9512 14.8536 17.1464L16.5 18.7929L19.6464 15.6464Z"/></svg>

<svg xmlns="http://www.w3.org/2000/svg" width="24" height="24" fill="currentColor" viewBox="0 0 24 24">
  <path d="m17 6-1.703-2.555A1 1 0 0 0 14.465 3h-4.93a1 1 0 0 0-.832.445L7 6H4a2 2 0 0 0-2 2v2a.75.75 0 0 0 1.5 0V8a.5.5 0 0 1 .5-.5h3a1.5 1.5 0 0 0 1.248-.668L9.803 4.5h4.394l1.555 2.332A1.5 1.5 0 0 0 17 7.5h3a.5.5 0 0 1 .5.5v3.732A6.518 6.518 0 0 1 22 12.81V8a2 2 0 0 0-2-2h-3Z"/>
  <path d="M16.33 10.5c.105.181.198.369.279.56a6.417 6.417 0 0 0-1.474.384 3.5 3.5 0 0 0-4.885-1.475.75.75 0 0 1-.75-1.3 5 5 0 0 1 6.83 1.831Zm-5.33 7c0-.381.033-.755.096-1.119a3.5 3.5 0 0 1-.846-.35.75.75 0 0 0-.75 1.3 5.02 5.02 0 0 0 1.512.57A6.595 6.595 0 0 1 11 17.5Zm1.022 3.5a6.471 6.471 0 0 1-.709-1.5H4a.5.5 0 0 1-.5-.5v-3A.75.75 0 0 0 2 16v3a2 2 0 0 0 2 2h8.022ZM2 13a.75.75 0 0 1 .75-.75h4.629l-1.47-1.47a.75.75 0 1 1 1.06-1.06l2.75 2.75a.75.75 0 0 1 0 1.06l-2.75 2.75a.75.75 0 0 1-1.06-1.06l1.47-1.47H2.75A.75.75 0 0 1 2 13Z"/>
  <path fill-rule="evenodd" d="M23 17.5a5.5 5.5 0 1 1-11 0 5.5 5.5 0 0 1 11 0Zm-3.354-1.854a.5.5 0 0 1 .708.708l-3.5 3.5a.5.5 0 0 1-.708 0l-2-2a.5.5 0 0 1 .708-.708l1.646 1.647 3.146-3.147Z" clip-rule="evenodd"/>
</svg>
